X:26
T:McGoldrick's
R:reel
D:Snug in the Blanket,P.O'Brien,J.Gans,D.Sproule
S:Tony McMahon & Bill Harte - accordions
Z:Paul Stewart Cranford (P.S.C.), <http://www.cranfordpub.com>
L:1/8
Q:333
M:C|
K:D
d2 Ad ceAB|cdef gAce|d2 Ad ceAG|FDEF GABc|
d2 Ad ceAB|cdef gefg|afge fded|cA A/A/A GAce:|
|:d2 fd adfa|dafa gAce|d2 fd adfd|cAAG EADA|
d2 fd adfa|dafa gefg|afge fded|cA A/A/A GAce:|
